X:110
T:Over the Hills & Far Away
M:4/4
L:1/8
K:G
D2 | GABA GABA | G2 E2 E2 D2 | GABA GABG |
c2 A2 A2 D2 | GABA GABA | G2 E2 c4 | E2 D2 D2 B2 | c2 A2 A2 :|
Bc | d3 c B3 A | G2 E2 E2 Bc | d2 dc B2 AB | c2 A2 A2 Bc |
de dc Bc BA | G2 E2 c4 | E2 D2 D2 B2 | c2 A2 A2 :|
